X:1
T:Delphine, 11.8.11.8
T:Delphine, 11.8.11.8
T:Hart Pease Danks, 1901
T:Public Domain Courtesy of the Cyber Hymnal™
C:Hart Pease Danks, 1901
Z:Public Domain
Z:Courtesy of the Cyber Hymnal™
%%score 1 ( 2 3 )
L:1/8
M:2/2
K:Ab
V:1 treble 
V:2 bass 
V:3 bass 
V:1
 [CA]2 | [Ec]4 [DB]2 [CA]2 | [Ec]4 [DB]2 [CA]2 | [FA]4 [EG]2 [DF]2 | [CE]6 [CE]2 | %5
 [DF]4 [DF]2 [DF]2 | [CE]2 [CA]4 [Ec]2 | [EB]6 [EB]2 | [Ec]4 [Ed]2 [Ec]2 | [DB]4 [CA]2 [EA]2 | %10
 [FA]4 [EG]2 [DF]2 | [CE]6 [CE]2 | [CA]4 [CA]2 [DB]2 | [Ec]4 [DB]3 [CA] | [CA]6 |] %15
V:2
 [A,,A,]2 | [A,,A,]4 [A,,A,]2 [A,,A,]2 | [A,,A,]4 [A,,A,]2 [A,,A,]2 | [D,A,]4 [D,A,]2 [D,A,]2 | %4
 [A,,A,]6 [A,,A,]2 | [D,A,]4 [D,A,]2 [D,A,]2 | [A,,A,]2 [A,,A,]4 [A,,A,]2 | [E,G,]6 [E,G,]2 | %8
 A,4 [G,B,]2 A,2 | [E,G,]4 [F,A,]2 [C,A,]2 | [D,A,]4 [D,A,]2 [D,A,]2 | [A,,A,]6 [A,,A,]2 | %12
 [F,A,]4 [F,A,]2 [_F,A,]2 | [E,A,]4 [E,G,]3 [E,A,] | [A,,A,]6 |] %15
V:3
 x2 | x8 | x8 | x8 | x8 | x8 | x8 | x8 | A,4 A,2 x2 | x8 | x8 | x8 | x8 | x8 | x6 |] %15

